icons/digitalocean-dark.svg

<svg width="256" height="256" viewBox="0 0 256 256" fill="none" xmlns="http://www.w3.org/2000/svg">
<g id="DO" clip-path="url(#clip0_1_61)">
<path id="Vector" d="M60 0H196C229.1 0 256 26.9 256 60V196C256 229.1 229.1 256 196 256H60C26.9 256 0 229.1 0 196V60C0 26.9 26.9 0 60 0Z" fill="#282828"/>
<g id="Group 14">
<path id="Vector_2" d="M128 222.994V186.194C167 186.194 197.2 147.594 182.3 106.494C176.8 91.2937 164.7 79.1937 149.4 73.6937C108.4 58.7937 69.8 88.9937 69.8 127.994H33C33 65.7937 93.1 17.3937 158.3 37.6937C186.8 46.5937 209.4 69.1937 218.3 97.6937C238.6 162.894 190.2 222.994 128 222.994Z" fill="white"/>
<path id="Vector_3" fill-rule="evenodd" clip-rule="evenodd" d="M128.1 186.294H91.3999V149.594H128.1V186.294Z" fill="white"/>
<path id="Vector_4" fill-rule="evenodd" clip-rule="evenodd" d="M91.4002 214.494H63.2002V186.294H91.4002V214.494Z" fill="white"/>
<path id="Vector_5" fill-rule="evenodd" clip-rule="evenodd" d="M63.2001 186.293H39.6001V162.693H63.2001V186.293Z" fill="white"/>
</g>
</g>
<defs>
<clipPath id="clip0_1_61">
<rect width="256" height="256" fill="white"/>
</clipPath>
</defs>
</svg>

<svg xmlns="http://www.w3.org/2000/svg" width="256" height="256" fill="none"><g id="DO" clip-path="url(#clip0_1_61)"><path id="Vector" fill="#282828" d="M60 0h136c33.1 0 60 26.9 60 60v136c0 33.1-26.9 60-60 60H60c-33.1 0-60-26.9-60-60V60C0 26.9 26.9 0 60 0"/><g id="Group 14" fill="#fff"><path id="Vector_2" d="M128 222.994v-36.8c39 0 69.2-38.6 54.3-79.7-5.5-15.2-17.6-27.3-32.9-32.8-41-14.9-79.6 15.3-79.6 54.3H33c0-62.2 60.1-110.6 125.3-90.3 28.5 8.9 51.1 31.5 60 60 20.3 65.2-28.1 125.3-90.3 125.3"/><path id="Vector_3" fill-rule="evenodd" d="M128.1 186.294H91.4v-36.7h36.7z" clip-rule="evenodd"/><path id="Vector_4" fill-rule="evenodd" d="M91.4 214.494H63.2v-28.2h28.2z" clip-rule="evenodd"/><path id="Vector_5" fill-rule="evenodd" d="M63.2 186.293H39.6v-23.6h23.6z" clip-rule="evenodd"/></g></g><defs><clipPath id="clip0_1_61"><path fill="#fff" d="M0 0h256v256H0z"/></clipPath></defs></svg>
